X: 1
T:The Eight Men of Moidart
M:C
L:1/8
Q:80
C:Trad.
S:Reel
K:HP
|: a|
c/2{d}A3/2{gef}e3/2A/2{g}c/2A3/2{gf}g2|
B/2{d}G3/2{g}d3/2{e}G/2{g}{gBd}B2{e}B/2a3/2|
c/2{d}A3/2{gef}e3/2A/2{g}c/2A3/2{gf}g2|  !
{ef}e2{gde}d3/2B3/4{g}c3/2{d}A/2{e}A:| [|
e|
{ag}a2e/2a3/2c/2a3/2e3/2d/2|
{gf}g2d/2g3/2B/2g3/2d/2e3/2|  !
{ag}a2e/2a3/2c/2a3/2e3/2d/2|
g3/2e/2{gde}d3/2B/2{g}c3/2{d}A/2{e}A3/2e/2|
{ag}a2e/2a3/2c/2a3/2e3/2d/2|  !
{gf}g2d/2g3/2B/2g3/2d/2e3/2|
a3/2f/2{a}g3/2e/2{g}f3/2d/2{g}e/2a3/2|
g3/2e/2{gde}d3/2B/2{g}c3/2{d}A/2{e}A/2a|] |:  !
c/2{d}A3/2{gef}e3/2A/2{g}c/2{d}A3/2{g}e/2g3/2|
{a}B/2{d}G3/2d3/2G/2{g}B3/2c/2{g}d3/2B/2|
{g}c/2{d}A3/2{gef}e3/2A/2{g}c/2{d}A3/2{g}e/2a3/2|  !
g3/2e/2{gde}d3/2B/2{g}c3/2{d}A/2{e}A3/2a:| [|
e|
a3/2e/2{A}e/2a3/2c/2e3/2{A}e/2a3/2|
{g}g2{de}d3/2c3/4{g}B3/2{d}A/2{e}A/2{d}B3/2|  !
a3/2e/2{A}e/2a3/2c/2e3/2{A}e/2a3/2|
{g}g2{de}d3/2B3/4{g}c3/2{d}A/2{e}A/2e3/2| |
a3/2e/2{g}c/2e3/2a3/2e/2{g}c/2e3/2|  !
{gf}g2{de}d3/2c3/4{g}B3/2{d}A/2{e}A/2{d}B3/2|
a3/2f/2{a}g3/2e/2{g}f3/2d/2{gef}e3/2c/2|
{gde}d3/2B/2{g}f3/2e/2{g}c3/2{d}A/2{e}A|]  !
